X:137
T:Tie the Ribbons
R:reel
H:See also #266
Z:id:hn-reel-137
M:C|
K:Edor
BE~E2 GBAG|FDAD BDAD|GBEF GABc|1 dcdf e2dc:|2 dcdf ~e3f||
|:g2gf gbag|fddc dfaf|1 g2ef gbaf|gfed (3Bcd ef:|2 bgaf gfed|Bgfg e2dc||

